X:1
T:Nannette.(2 voices). TWC.290
T:Nannette.(2 voices). TWC.290
T:La Eté
C:La Eté
%%score 1 2
L:1/8
Q:1/4=100
M:2/4
K:C
V:1 treble 
V:2 bass 
V:1
"^Quadrilles   No. 4. 1st. Set" e/f/d/e/ ce | faag | f/e/d/c/ B/c/d/e/ | f/g/f/e/ dc/d/ | %4
 e/f/d/e/ cG | faag | a/b/c'/a/ g/c'/a/f/ | e/d/c/B/ c2!fine! :| E/F/D/F/ EG | ceed | %10
 e/^f/g/e/ d/e/f/g/ | a/g/^f/e/ d2 | E/F/D/F/ EG | ceed | e/^f/g/e/ d/f/g/e/ | %15
"^D.C. Senza replica" d/c/B/A/ G2 |] %16
V:2
 C,G,E,G, | C,A,F,A, | C,G,E,G, | G,,D,B,,D, | C,G,E,G, | C,A,F,A, | C,F,E,F, | G,G,, C,2 :| %8
 C,G,E,G, | C,G,E,G, | C,C, G,,G,, | D,D,, G,,2 | C,G,E,G, | C,G,E,G, | C,2 B,,C, | D,D,, G,,2 |] %16

